svg/Octicons/issue-opened.svg

<svg height="1024" width="896" xmlns="http://www.w3.org/2000/svg">
  <path d="M448 64C200.562 64 0 264.562 0 512c0 247.438 200.562 448 448 448 247.438 0 448-200.562 448-448C896 264.562 695.438 64 448 64zM448 832c-176.781 0-320-143.25-320-320 0-176.781 143.219-320 320-320 176.75 0 320 143.219 320 320C768 688.75 624.75 832 448 832zM384 768h128V640H384V768zM384 576h128V256H384V576z" />
</svg>

<svg xmlns="http://www.w3.org/2000/svg" viewBox="0 0 896 1024"><path d="m448 64c-247.44 0-448 200.56-448 448 0 247.44 200.56 448 448 448 247.44 0 448-200.56 448-448 0-247.44-200.56-448-448-448m0 768c-176.78 0-320-143.25-320-320 0-176.78 143.22-320 320-320 176.75 0 320 143.22 320 320 0 176.75-143.25 320-320 320m-64-64h128v-128h-128v128m0-192h128v-320h-128v320"/></svg>
